icons/modern/trophy.svg

<svg width="32" height="32" viewBox="0 0 32 32" fill="none" xmlns="http://www.w3.org/2000/svg">
<g filter="url(#filter0_i_18_1422)">
<path fill-rule="evenodd" clip-rule="evenodd" d="M24.5547 6.83447C23.655 6.5831 22.7199 7.10489 22.4607 8.00883C22.3288 8.46882 21.849 8.73478 21.389 8.60287C20.929 8.47096 20.6631 7.99113 20.795 7.53115C21.3145 5.71931 23.1919 4.6618 25.0083 5.16197C25.0422 5.17041 25.1103 5.18749 25.1718 5.208C27.6648 6.03899 27.8632 9.42185 25.6273 10.6581C25.6272 10.6582 25.6274 10.6581 25.6273 10.6581L20.6573 13.4081C20.2386 13.6398 19.7114 13.4882 19.4797 13.0695C19.248 12.6508 19.3996 12.1235 19.8183 11.8919L24.7883 9.14186C25.7703 8.59903 25.6113 7.18632 24.6295 6.85386L24.6233 6.85217C24.6123 6.84923 24.5991 6.84591 24.5777 6.84056C24.57 6.83864 24.5623 6.83661 24.5547 6.83447Z" fill="#FFD340"/>
<path fill-rule="evenodd" clip-rule="evenodd" d="M24.5547 6.83447C23.655 6.5831 22.7199 7.10489 22.4607 8.00883C22.3288 8.46882 21.849 8.73478 21.389 8.60287C20.929 8.47096 20.6631 7.99113 20.795 7.53115C21.3145 5.71931 23.1919 4.6618 25.0083 5.16197C25.0422 5.17041 25.1103 5.18749 25.1718 5.208C27.6648 6.03899 27.8632 9.42185 25.6273 10.6581C25.6272 10.6582 25.6274 10.6581 25.6273 10.6581L20.6573 13.4081C20.2386 13.6398 19.7114 13.4882 19.4797 13.0695C19.248 12.6508 19.3996 12.1235 19.8183 11.8919L24.7883 9.14186C25.7703 8.59903 25.6113 7.18632 24.6295 6.85386L24.6233 6.85217C24.6123 6.84923 24.5991 6.84591 24.5777 6.84056C24.57 6.83864 24.5623 6.83661 24.5547 6.83447Z" fill="url(#paint0_linear_18_1422)"/>
<path fill-rule="evenodd" clip-rule="evenodd" d="M24.5547 6.83447C23.655 6.5831 22.7199 7.10489 22.4607 8.00883C22.3288 8.46882 21.849 8.73478 21.389 8.60287C20.929 8.47096 20.6631 7.99113 20.795 7.53115C21.3145 5.71931 23.1919 4.6618 25.0083 5.16197C25.0422 5.17041 25.1103 5.18749 25.1718 5.208C27.6648 6.03899 27.8632 9.42185 25.6273 10.6581C25.6272 10.6582 25.6274 10.6581 25.6273 10.6581L20.6573 13.4081C20.2386 13.6398 19.7114 13.4882 19.4797 13.0695C19.248 12.6508 19.3996 12.1235 19.8183 11.8919L24.7883 9.14186C25.7703 8.59903 25.6113 7.18632 24.6295 6.85386L24.6233 6.85217C24.6123 6.84923 24.5991 6.84591 24.5777 6.84056C24.57 6.83864 24.5623 6.83661 24.5547 6.83447Z" fill="url(#paint1_radial_18_1422)"/>
</g>
<g filter="url(#filter1_i_18_1422)">
<path fill-rule="evenodd" clip-rule="evenodd" d="M6.30736 5.16197C8.12378 4.6618 10.0011 5.71931 10.5207 7.53115C10.6526 7.99113 10.3866 8.47096 9.92665 8.60287C9.46666 8.73478 8.98683 8.46882 8.85492 8.00883C8.59571 7.10489 7.6606 6.5831 6.76097 6.83447C6.75332 6.83661 6.74565 6.83864 6.73795 6.84056C6.71658 6.84591 6.70335 6.84923 6.69234 6.85217L6.68619 6.85386C5.70431 7.18632 5.54504 8.59886 6.527 9.14169L11.4973 11.8919C11.916 12.1235 12.0676 12.6508 11.836 13.0695C11.6043 13.4882 11.077 13.6398 10.6583 13.4081L5.68863 10.6583C5.68853 10.6582 5.68873 10.6583 5.68863 10.6583C3.4528 9.42202 3.65082 6.03899 6.14382 5.20799C6.20533 5.18749 6.27342 5.17041 6.30736 5.16197Z" fill="#EAA73A"/>
<path fill-rule="evenodd" clip-rule="evenodd" d="M6.30736 5.16197C8.12378 4.6618 10.0011 5.71931 10.5207 7.53115C10.6526 7.99113 10.3866 8.47096 9.92665 8.60287C9.46666 8.73478 8.98683 8.46882 8.85492 8.00883C8.59571 7.10489 7.6606 6.5831 6.76097 6.83447C6.75332 6.83661 6.74565 6.83864 6.73795 6.84056C6.71658 6.84591 6.70335 6.84923 6.69234 6.85217L6.68619 6.85386C5.70431 7.18632 5.54504 8.59886 6.527 9.14169L11.4973 11.8919C11.916 12.1235 12.0676 12.6508 11.836 13.0695C11.6043 13.4882 11.077 13.6398 10.6583 13.4081L5.68863 10.6583C5.68853 10.6582 5.68873 10.6583 5.68863 10.6583C3.4528 9.42202 3.65082 6.03899 6.14382 5.20799C6.20533 5.18749 6.27342 5.17041 6.30736 5.16197Z" fill="url(#paint2_linear_18_1422)"/>
</g>
<g filter="url(#filter2_i_18_1422)">
<path d="M17.3279 17.5199V13.2999H13.9878V17.5199C13.9878 18.2599 13.6578 18.9699 13.0878 19.4399L11.1678 21.0399H20.1478L18.2278 19.4399C17.6578 18.9599 17.3279 18.2599 17.3279 17.5199Z" fill="url(#paint3_linear_18_1422)"/>
<path d="M17.3279 17.5199V13.2999H13.9878V17.5199C13.9878 18.2599 13.6578 18.9699 13.0878 19.4399L11.1678 21.0399H20.1478L18.2278 19.4399C17.6578 18.9599 17.3279 18.2599 17.3279 17.5199Z" fill="url(#paint4_radial_18_1422)"/>
</g>
<path d="M17.3279 17.5199V13.2999H13.9878V17.5199C13.9878 18.2599 13.6578 18.9699 13.0878 19.4399L11.1678 21.0399H20.1478L18.2278 19.4399C17.6578 18.9599 17.3279 18.2599 17.3279 17.5199Z" fill="url(#paint5_radial_18_1422)"/>
<path d="M15.6579 16.55C11.8079 16.55 8.68787 13.43 8.68787 9.58V2.72C8.68787 2.33 9.00786 2.01001 9.39786 2.01001H21.9279C22.3179 2.01001 22.6379 2.33 22.6379 2.72V9.58C22.6379 13.43 19.5179 16.55 15.6579 16.55Z" fill="#EA873A"/>
<path d="M15.6579 16.55C11.8079 16.55 8.68787 13.43 8.68787 9.58V2.72C8.68787 2.33 9.00786 2.01001 9.39786 2.01001H21.9279C22.3179 2.01001 22.6379 2.33 22.6379 2.72V9.58C22.6379 13.43 19.5179 16.55 15.6579 16.55Z" fill="url(#paint6_radial_18_1422)"/>
<path d="M15.6579 16.55C11.8079 16.55 8.68787 13.43 8.68787 9.58V2.72C8.68787 2.33 9.00786 2.01001 9.39786 2.01001H21.9279C22.3179 2.01001 22.6379 2.33 22.6379 2.72V9.58C22.6379 13.43 19.5179 16.55 15.6579 16.55Z" fill="url(#paint7_radial_18_1422)"/>
<path d="M15.6579 16.55C11.8079 16.55 8.68787 13.43 8.68787 9.58V2.72C8.68787 2.33 9.00786 2.01001 9.39786 2.01001H21.9279C22.3179 2.01001 22.6379 2.33 22.6379 2.72V9.58C22.6379 13.43 19.5179 16.55 15.6579 16.55Z" fill="url(#paint8_radial_18_1422)"/>
<g filter="url(#filter3_i_18_1422)">
<path d="M22.5779 21.04H8.73785C8.00785 21.04 7.38786 21.55 7.24786 22.26L5.71786 29.35C5.64786 29.68 5.89785 29.99 6.23785 29.99H25.0879C25.4279 29.99 25.6779 29.68 25.6079 29.35L24.0779 22.26C23.9279 21.55 23.3079 21.04 22.5779 21.04Z" fill="url(#paint9_linear_18_1422)"/>
<path d="M22.5779 21.04H8.73785C8.00785 21.04 7.38786 21.55 7.24786 22.26L5.71786 29.35C5.64786 29.68 5.89785 29.99 6.23785 29.99H25.0879C25.4279 29.99 25.6779 29.68 25.6079 29.35L24.0779 22.26C23.9279 21.55 23.3079 21.04 22.5779 21.04Z" fill="url(#paint10_linear_18_1422)"/>
<path d="M22.5779 21.04H8.73785C8.00785 21.04 7.38786 21.55 7.24786 22.26L5.71786 29.35C5.64786 29.68 5.89785 29.99 6.23785 29.99H25.0879C25.4279 29.99 25.6779 29.68 25.6079 29.35L24.0779 22.26C23.9279 21.55 23.3079 21.04 22.5779 21.04Z" fill="url(#paint11_linear_18_1422)"/>
</g>
<g filter="url(#filter4_f_18_1422)">
<path d="M18.4019 23.884H12.3819C12.0319 23.884 11.7419 24.164 11.7419 24.524V26.334C11.7419 26.684 12.0219 26.974 12.3819 26.974H18.4019C18.7519 26.974 19.0419 26.694 19.0419 26.334V24.524C19.0419 24.174 18.7619 23.884 18.4019 23.884Z" fill="#914556"/>
</g>
<g filter="url(#filter5_i_18_1422)">
<path d="M18.6678 23.7H12.6478C12.2978 23.7 12.0078 23.98 12.0078 24.34V26.15C12.0078 26.5 12.2878 26.79 12.6478 26.79H18.6678C19.0178 26.79 19.3078 26.51 19.3078 26.15V24.34C19.3078 23.99 19.0278 23.7 18.6678 23.7Z" fill="url(#paint12_linear_18_1422)"/>
</g>
<defs>
<filter id="filter0_i_18_1422" x="19.3712" y="4.78796" width="7.81012" height="8.72864" filterUnits="userSpaceOnUse" color-interpolation-filters="sRGB">
<feFlood flood-opacity="0" result="BackgroundImageFix"/>
<feBlend mode="normal" in="SourceGraphic" in2="BackgroundImageFix" result="shape"/>
<feColorMatrix in="SourceAlpha" type="matrix" values="0 0 0 0 0 0 0 0 0 0 0 0 0 0 0 0 0 0 127 0" result="hardAlpha"/>
<feOffset dy="-0.25"/>
<feGaussianBlur stdDeviation="0.25"/>
<feComposite in2="hardAlpha" operator="arithmetic" k2="-1" k3="1"/>
<feColorMatrix type="matrix" values="0 0 0 0 0.937255 0 0 0 0 0.576471 0 0 0 0 0.247059 0 0 0 1 0"/>
<feBlend mode="normal" in2="shape" result="effect1_innerShadow_18_1422"/>
</filter>
<filter id="filter1_i_18_1422" x="4.13446" y="4.78796" width="7.81" height="8.72864" filterUnits="userSpaceOnUse" color-interpolation-filters="sRGB">
<feFlood flood-opacity="0" result="BackgroundImageFix"/>
<feBlend mode="normal" in="SourceGraphic" in2="BackgroundImageFix" result="shape"/>
<feColorMatrix in="SourceAlpha" type="matrix" values="0 0 0 0 0 0 0 0 0 0 0 0 0 0 0 0 0 0 127 0" result="hardAlpha"/>
<feOffset dy="-0.25"/>
<feGaussianBlur stdDeviation="0.25"/>
<feComposite in2="hardAlpha" operator="arithmetic" k2="-1" k3="1"/>
<feColorMatrix type="matrix" values="0 0 0 0 0.854902 0 0 0 0 0.458824 0 0 0 0 0.286275 0 0 0 1 0"/>
<feBlend mode="normal" in2="shape" result="effect1_innerShadow_18_1422"/>
</filter>
<filter id="filter2_i_18_1422" x="11.1678" y="13.2999" width="9.47998" height="7.98999" filterUnits="userSpaceOnUse" color-interpolation-filters="sRGB">
<feFlood flood-opacity="0" result="BackgroundImageFix"/>
<feBlend mode="normal" in="SourceGraphic" in2="BackgroundImageFix" result="shape"/>
<feColorMatrix in="SourceAlpha" type="matrix" values="0 0 0 0 0 0 0 0 0 0 0 0 0 0 0 0 0 0 127 0" result="hardAlpha"/>
<feOffset dx="0.5" dy="0.25"/>
<feGaussianBlur stdDeviation="0.25"/>
<feComposite in2="hardAlpha" operator="arithmetic" k2="-1" k3="1"/>
<feColorMatrix type="matrix" values="0 0 0 0 0.843137 0 0 0 0 0.462745 0 0 0 0 0.215686 0 0 0 1 0"/>
<feBlend mode="normal" in2="shape" result="effect1_innerShadow_18_1422"/>
</filter>
<filter id="filter3_i_18_1422" x="5.70605" y="21.04" width="20.5636" height="9.59995" filterUnits="userSpaceOnUse" color-interpolation-filters="sRGB">
<feFlood flood-opacity="0" result="BackgroundImageFix"/>
<feBlend mode="normal" in="SourceGraphic" in2="BackgroundImageFix" result="shape"/>
<feColorMatrix in="SourceAlpha" type="matrix" values="0 0 0 0 0 0 0 0 0 0 0 0 0 0 0 0 0 0 127 0" result="hardAlpha"/>
<feOffset dx="0.65" dy="0.65"/>
<feGaussianBlur stdDeviation="0.375"/>
<feComposite in2="hardAlpha" operator="arithmetic" k2="-1" k3="1"/>
<feColorMatrix type="matrix" values="0 0 0 0 0.509804 0 0 0 0 0.270588 0 0 0 0 0.270588 0 0 0 1 0"/>
<feBlend mode="normal" in2="shape" result="effect1_innerShadow_18_1422"/>
</filter>
<filter id="filter4_f_18_1422" x="11.3419" y="23.484" width="8.09999" height="3.88997" filterUnits="userSpaceOnUse" color-interpolation-filters="sRGB">
<feFlood flood-opacity="0" result="BackgroundImageFix"/>
<feBlend mode="normal" in="SourceGraphic" in2="BackgroundImageFix" result="shape"/>
<feGaussianBlur stdDeviation="0.2" result="effect1_foregroundBlur_18_1422"/>
</filter>
<filter id="filter5_i_18_1422" x="12.0078" y="23.45" width="7.54999" height="3.33997" filterUnits="userSpaceOnUse" color-interpolation-filters="sRGB">
<feFlood flood-opacity="0" result="BackgroundImageFix"/>
<feBlend mode="normal" in="SourceGraphic" in2="BackgroundImageFix" result="shape"/>
<feColorMatrix in="SourceAlpha" type="matrix" values="0 0 0 0 0 0 0 0 0 0 0 0 0 0 0 0 0 0 127 0" result="hardAlpha"/>
<feOffset dx="0.25" dy="-0.25"/>
<feGaussianBlur stdDeviation="0.2"/>
<feComposite in2="hardAlpha" operator="arithmetic" k2="-1" k3="1"/>
<feColorMatrix type="matrix" values="0 0 0 0 0.941176 0 0 0 0 0.533333 0 0 0 0 0.333333 0 0 0 1 0"/>
<feBlend mode="normal" in2="shape" result="effect1_innerShadow_18_1422"/>
</filter>
<linearGradient id="paint0_linear_18_1422" x1="22.2363" y1="11.9442" x2="25.8679" y2="8.66788" gradientUnits="userSpaceOnUse">
<stop stop-color="#FEC551"/>
<stop offset="1" stop-color="#FEC551" stop-opacity="0"/>
</linearGradient>
<radialGradient id="paint1_radial_18_1422" cx="0" cy="0" r="1" gradientUnits="userSpaceOnUse" gradientTransform="translate(22.2758 8.90473) rotate(-21.5519) scale(5.05047 4.65227)">
<stop offset="0.72717" stop-color="#FFEC6A" stop-opacity="0"/>
<stop offset="1" stop-color="#FFEC6A"/>
</radialGradient>
<linearGradient id="paint2_linear_18_1422" x1="9.56527" y1="7.95736" x2="7.07842" y2="7.24683" gradientUnits="userSpaceOnUse">
<stop stop-color="#D27840"/>
<stop offset="1" stop-color="#D27840" stop-opacity="0"/>
</linearGradient>
<linearGradient id="paint3_linear_18_1422" x1="16.9534" y1="19.7599" x2="11.8909" y2="19.7599" gradientUnits="userSpaceOnUse">
<stop stop-color="#FBC33A"/>
<stop offset="1" stop-color="#DB7B3C"/>
</linearGradient>
<radialGradient id="paint4_radial_18_1422" cx="0" cy="0" r="1" gradientUnits="userSpaceOnUse" gradientTransform="translate(17.2347 17.1699) rotate(90) scale(2.09 1.90625)">
<stop offset="0.192585" stop-color="#FFE469"/>
<stop offset="1" stop-color="#FFE469" stop-opacity="0"/>
</radialGradient>
<radialGradient id="paint5_radial_18_1422" cx="0" cy="0" r="1" gradientUnits="userSpaceOnUse" gradientTransform="translate(19.3914 20.3523) rotate(149.162) scale(2.27493 3.45405)">
<stop stop-color="#FFD34D"/>
<stop offset="1" stop-color="#FFD34D" stop-opacity="0"/>
</radialGradient>
<radialGradient id="paint6_radial_18_1422" cx="0" cy="0" r="1" gradientUnits="userSpaceOnUse" gradientTransform="translate(18.2035 3.13501) rotate(83.702) scale(12.4237 7.97758)">
<stop offset="0.120527" stop-color="#FFFA73"/>
<stop offset="1" stop-color="#FFFA73" stop-opacity="0"/>
</radialGradient>
<radialGradient id="paint7_radial_18_1422" cx="0" cy="0" r="1" gradientUnits="userSpaceOnUse" gradientTransform="translate(18.2836 2.01001) rotate(90) scale(0.704335 7.87152)">
<stop stop-color="#FFF45B"/>
<stop offset="1" stop-color="#FFF45B" stop-opacity="0"/>
</radialGradient>
<radialGradient id="paint8_radial_18_1422" cx="0" cy="0" r="1" gradientUnits="userSpaceOnUse" gradientTransform="translate(19.016 4.76001) rotate(121.572) scale(13.1311 12.5983)">
<stop offset="0.787409" stop-color="#C55D73" stop-opacity="0"/>
<stop offset="1" stop-color="#C55D73"/>
</radialGradient>
<linearGradient id="paint9_linear_18_1422" x1="5.70576" y1="25.5122" x2="25.6158" y2="25.5122" gradientUnits="userSpaceOnUse">
<stop stop-color="#9D5B6C"/>
<stop offset="1" stop-color="#955569"/>
</linearGradient>
<linearGradient id="paint10_linear_18_1422" x1="15.6629" y1="30.3787" x2="15.6629" y2="28.7525" gradientUnits="userSpaceOnUse">
<stop stop-color="#8C3A79"/>
<stop offset="1" stop-color="#8C3A79" stop-opacity="0"/>
</linearGradient>
<linearGradient id="paint11_linear_18_1422" x1="24.8704" y1="26.532" x2="23.9322" y2="26.751" gradientUnits="userSpaceOnUse">
<stop stop-color="#B0817C"/>
<stop offset="1" stop-color="#B0817C" stop-opacity="0"/>
</linearGradient>
<linearGradient id="paint12_linear_18_1422" x1="19.6822" y1="25.245" x2="12.0078" y2="25.2449" gradientUnits="userSpaceOnUse">
<stop stop-color="#FFE767"/>
<stop offset="1" stop-color="#FEBB5B"/>
</linearGradient>
</defs>
</svg>

<svg width="32" height="32" fill="none" xmlns="http://www.w3.org/2000/svg"><g filter="url(#a)" fill-rule="evenodd" clip-rule="evenodd"><path d="M24.555 6.834c-.9-.25-1.835.27-2.094 1.175a.866.866 0 1 1-1.666-.478 3.435 3.435 0 0 1 4.213-2.369c.034.008.102.025.164.046 2.493.831 2.691 4.214.455 5.45l-4.97 2.75a.866.866 0 1 1-.839-1.516l4.97-2.75c.982-.543.823-1.956-.159-2.288l-.006-.002a3.109 3.109 0 0 0-.068-.018Z" fill="#FFD340"/><path d="M24.555 6.834c-.9-.25-1.835.27-2.094 1.175a.866.866 0 1 1-1.666-.478 3.435 3.435 0 0 1 4.213-2.369c.034.008.102.025.164.046 2.493.831 2.691 4.214.455 5.45l-4.97 2.75a.866.866 0 1 1-.839-1.516l4.97-2.75c.982-.543.823-1.956-.159-2.288l-.006-.002a3.109 3.109 0 0 0-.068-.018Z" fill="url(#b)"/><path d="M24.555 6.834c-.9-.25-1.835.27-2.094 1.175a.866.866 0 1 1-1.666-.478 3.435 3.435 0 0 1 4.213-2.369c.034.008.102.025.164.046 2.493.831 2.691 4.214.455 5.45l-4.97 2.75a.866.866 0 1 1-.839-1.516l4.97-2.75c.982-.543.823-1.956-.159-2.288l-.006-.002a3.109 3.109 0 0 0-.068-.018Z" fill="url(#c)"/></g><g filter="url(#d)" fill-rule="evenodd" clip-rule="evenodd"><path d="M6.307 5.162a3.435 3.435 0 0 1 4.214 2.37.866.866 0 0 1-1.666.477A1.702 1.702 0 0 0 6.738 6.84a3.258 3.258 0 0 0-.046.011l-.006.002c-.982.332-1.141 1.745-.159 2.288l4.97 2.75a.866.866 0 1 1-.839 1.516l-4.97-2.75c-2.235-1.236-2.037-4.619.456-5.45.061-.02.13-.038.163-.046Z" fill="#EAA73A"/><path d="M6.307 5.162a3.435 3.435 0 0 1 4.214 2.37.866.866 0 0 1-1.666.477A1.702 1.702 0 0 0 6.738 6.84a3.258 3.258 0 0 0-.046.011l-.006.002c-.982.332-1.141 1.745-.159 2.288l4.97 2.75a.866.866 0 1 1-.839 1.516l-4.97-2.75c-2.235-1.236-2.037-4.619.456-5.45.061-.02.13-.038.163-.046Z" fill="url(#e)"/></g><g filter="url(#f)"><path d="M17.328 17.52V13.3h-3.34v4.22c0 .74-.33 1.45-.9 1.92l-1.92 1.6h8.98l-1.92-1.6a2.51 2.51 0 0 1-.9-1.92Z" fill="url(#g)"/><path d="M17.328 17.52V13.3h-3.34v4.22c0 .74-.33 1.45-.9 1.92l-1.92 1.6h8.98l-1.92-1.6a2.51 2.51 0 0 1-.9-1.92Z" fill="url(#h)"/></g><path d="M17.328 17.52V13.3h-3.34v4.22c0 .74-.33 1.45-.9 1.92l-1.92 1.6h8.98l-1.92-1.6a2.51 2.51 0 0 1-.9-1.92Z" fill="url(#i)"/><path d="M15.658 16.55a6.97 6.97 0 0 1-6.97-6.97V2.72c0-.39.32-.71.71-.71h12.53c.39 0 .71.32.71.71v6.86c0 3.85-3.12 6.97-6.98 6.97Z" fill="#EA873A"/><path d="M15.658 16.55a6.97 6.97 0 0 1-6.97-6.97V2.72c0-.39.32-.71.71-.71h12.53c.39 0 .71.32.71.71v6.86c0 3.85-3.12 6.97-6.98 6.97Z" fill="url(#j)"/><path d="M15.658 16.55a6.97 6.97 0 0 1-6.97-6.97V2.72c0-.39.32-.71.71-.71h12.53c.39 0 .71.32.71.71v6.86c0 3.85-3.12 6.97-6.98 6.97Z" fill="url(#k)"/><path d="M15.658 16.55a6.97 6.97 0 0 1-6.97-6.97V2.72c0-.39.32-.71.71-.71h12.53c.39 0 .71.32.71.71v6.86c0 3.85-3.12 6.97-6.98 6.97Z" fill="url(#l)"/><g filter="url(#m)"><path d="M22.578 21.04H8.738c-.73 0-1.35.51-1.49 1.22l-1.53 7.09c-.07.33.18.64.52.64h18.85c.34 0 .59-.31.52-.64l-1.53-7.09c-.15-.71-.77-1.22-1.5-1.22Z" fill="url(#n)"/><path d="M22.578 21.04H8.738c-.73 0-1.35.51-1.49 1.22l-1.53 7.09c-.07.33.18.64.52.64h18.85c.34 0 .59-.31.52-.64l-1.53-7.09c-.15-.71-.77-1.22-1.5-1.22Z" fill="url(#o)"/><path d="M22.578 21.04H8.738c-.73 0-1.35.51-1.49 1.22l-1.53 7.09c-.07.33.18.64.52.64h18.85c.34 0 .59-.31.52-.64l-1.53-7.09c-.15-.71-.77-1.22-1.5-1.22Z" fill="url(#p)"/></g><g filter="url(#q)"><path d="M18.402 23.884h-6.02c-.35 0-.64.28-.64.64v1.81c0 .35.28.64.64.64h6.02c.35 0 .64-.28.64-.64v-1.81c0-.35-.28-.64-.64-.64Z" fill="#914556"/></g><g filter="url(#r)"><path d="M18.668 23.7h-6.02c-.35 0-.64.28-.64.64v1.81c0 .35.28.64.64.64h6.02c.35 0 .64-.28.64-.64v-1.81c0-.35-.28-.64-.64-.64Z" fill="url(#s)"/></g><defs><linearGradient id="b" x1="22.236" y1="11.944" x2="25.868" y2="8.668" gradientUnits="userSpaceOnUse"><stop stop-color="#FEC551"/><stop offset="1" stop-color="#FEC551" stop-opacity="0"/></linearGradient><linearGradient id="e" x1="9.565" y1="7.957" x2="7.078" y2="7.247" gradientUnits="userSpaceOnUse"><stop stop-color="#D27840"/><stop offset="1" stop-color="#D27840" stop-opacity="0"/></linearGradient><linearGradient id="g" x1="16.953" y1="19.76" x2="11.891" y2="19.76" gradientUnits="userSpaceOnUse"><stop stop-color="#FBC33A"/><stop offset="1" stop-color="#DB7B3C"/></linearGradient><linearGradient id="n" x1="5.706" y1="25.512" x2="25.616" y2="25.512" gradientUnits="userSpaceOnUse"><stop stop-color="#9D5B6C"/><stop offset="1" stop-color="#955569"/></linearGradient><linearGradient id="o" x1="15.663" y1="30.379" x2="15.663" y2="28.753" gradientUnits="userSpaceOnUse"><stop stop-color="#8C3A79"/><stop offset="1" stop-color="#8C3A79" stop-opacity="0"/></linearGradient><linearGradient id="p" x1="24.87" y1="26.532" x2="23.932" y2="26.751" gradientUnits="userSpaceOnUse"><stop stop-color="#B0817C"/><stop offset="1" stop-color="#B0817C" stop-opacity="0"/></linearGradient><linearGradient id="s" x1="19.682" y1="25.245" x2="12.008" y2="25.245" gradientUnits="userSpaceOnUse"><stop stop-color="#FFE767"/><stop offset="1" stop-color="#FEBB5B"/></linearGradient><radialGradient id="c" cx="0" cy="0" r="1" gradientUnits="userSpaceOnUse" gradientTransform="matrix(4.69737 -1.85526 1.70898 4.327 22.276 8.905)"><stop offset=".727" stop-color="#FFEC6A" stop-opacity="0"/><stop offset="1" stop-color="#FFEC6A"/></radialGradient><radialGradient id="h" cx="0" cy="0" r="1" gradientUnits="userSpaceOnUse" gradientTransform="matrix(0 2.09 -1.90625 0 17.235 17.17)"><stop offset=".193" stop-color="#FFE469"/><stop offset="1" stop-color="#FFE469" stop-opacity="0"/></radialGradient><radialGradient id="i" cx="0" cy="0" r="1" gradientUnits="userSpaceOnUse" gradientTransform="rotate(149.162 6.89 12.85) scale(2.27493 3.45405)"><stop stop-color="#FFD34D"/><stop offset="1" stop-color="#FFD34D" stop-opacity="0"/></radialGradient><radialGradient id="j" cx="0" cy="0" r="1" gradientUnits="userSpaceOnUse" gradientTransform="matrix(1.36288 12.34872 -7.92943 .87514 18.203 3.135)"><stop offset=".121" stop-color="#FFFA73"/><stop offset="1" stop-color="#FFFA73" stop-opacity="0"/></radialGradient><radialGradient id="k" cx="0" cy="0" r="1" gradientUnits="userSpaceOnUse" gradientTransform="matrix(0 .70434 -7.87152 0 18.284 2.01)"><stop stop-color="#FFF45B"/><stop offset="1" stop-color="#FFF45B" stop-opacity="0"/></radialGradient><radialGradient id="l" cx="0" cy="0" r="1" gradientUnits="userSpaceOnUse" gradientTransform="matrix(-6.87504 11.18747 -10.73354 -6.59609 19.016 4.76)"><stop offset=".787" stop-color="#C55D73" stop-opacity="0"/><stop offset="1" stop-color="#C55D73"/></radialGradient><filter id="a" x="19.371" y="4.788" width="7.81" height="8.729" filterUnits="userSpaceOnUse" color-interpolation-filters="sRGB"><feFlood flood-opacity="0" result="BackgroundImageFix"/><feBlend in="SourceGraphic" in2="BackgroundImageFix" result="shape"/><feColorMatrix in="SourceAlpha" values="0 0 0 0 0 0 0 0 0 0 0 0 0 0 0 0 0 0 127 0" result="hardAlpha"/><feOffset dy="-.25"/><feGaussianBlur stdDeviation=".25"/><feComposite in2="hardAlpha" operator="arithmetic" k2="-1" k3="1"/><feColorMatrix values="0 0 0 0 0.937255 0 0 0 0 0.576471 0 0 0 0 0.247059 0 0 0 1 0"/><feBlend in2="shape" result="effect1_innerShadow_18_1422"/></filter><filter id="d" x="4.134" y="4.788" width="7.81" height="8.729" filterUnits="userSpaceOnUse" color-interpolation-filters="sRGB"><feFlood flood-opacity="0" result="BackgroundImageFix"/><feBlend in="SourceGraphic" in2="BackgroundImageFix" result="shape"/><feColorMatrix in="SourceAlpha" values="0 0 0 0 0 0 0 0 0 0 0 0 0 0 0 0 0 0 127 0" result="hardAlpha"/><feOffset dy="-.25"/><feGaussianBlur stdDeviation=".25"/><feComposite in2="hardAlpha" operator="arithmetic" k2="-1" k3="1"/><feColorMatrix values="0 0 0 0 0.854902 0 0 0 0 0.458824 0 0 0 0 0.286275 0 0 0 1 0"/><feBlend in2="shape" result="effect1_innerShadow_18_1422"/></filter><filter id="f" x="11.168" y="13.3" width="9.48" height="7.99" filterUnits="userSpaceOnUse" color-interpolation-filters="sRGB"><feFlood flood-opacity="0" result="BackgroundImageFix"/><feBlend in="SourceGraphic" in2="BackgroundImageFix" result="shape"/><feColorMatrix in="SourceAlpha" values="0 0 0 0 0 0 0 0 0 0 0 0 0 0 0 0 0 0 127 0" result="hardAlpha"/><feOffset dx=".5" dy=".25"/><feGaussianBlur stdDeviation=".25"/><feComposite in2="hardAlpha" operator="arithmetic" k2="-1" k3="1"/><feColorMatrix values="0 0 0 0 0.843137 0 0 0 0 0.462745 0 0 0 0 0.215686 0 0 0 1 0"/><feBlend in2="shape" result="effect1_innerShadow_18_1422"/></filter><filter id="m" x="5.706" y="21.04" width="20.564" height="9.6" filterUnits="userSpaceOnUse" color-interpolation-filters="sRGB"><feFlood flood-opacity="0" result="BackgroundImageFix"/><feBlend in="SourceGraphic" in2="BackgroundImageFix" result="shape"/><feColorMatrix in="SourceAlpha" values="0 0 0 0 0 0 0 0 0 0 0 0 0 0 0 0 0 0 127 0" result="hardAlpha"/><feOffset dx=".65" dy=".65"/><feGaussianBlur stdDeviation=".375"/><feComposite in2="hardAlpha" operator="arithmetic" k2="-1" k3="1"/><feColorMatrix values="0 0 0 0 0.509804 0 0 0 0 0.270588 0 0 0 0 0.270588 0 0 0 1 0"/><feBlend in2="shape" result="effect1_innerShadow_18_1422"/></filter><filter id="q" x="11.342" y="23.484" width="8.1" height="3.89" filterUnits="userSpaceOnUse" color-interpolation-filters="sRGB"><feFlood flood-opacity="0" result="BackgroundImageFix"/><feBlend in="SourceGraphic" in2="BackgroundImageFix" result="shape"/><feGaussianBlur stdDeviation=".2" result="effect1_foregroundBlur_18_1422"/></filter><filter id="r" x="12.008" y="23.45" width="7.55" height="3.34" filterUnits="userSpaceOnUse" color-interpolation-filters="sRGB"><feFlood flood-opacity="0" result="BackgroundImageFix"/><feBlend in="SourceGraphic" in2="BackgroundImageFix" result="shape"/><feColorMatrix in="SourceAlpha" values="0 0 0 0 0 0 0 0 0 0 0 0 0 0 0 0 0 0 127 0" result="hardAlpha"/><feOffset dx=".25" dy="-.25"/><feGaussianBlur stdDeviation=".2"/><feComposite in2="hardAlpha" operator="arithmetic" k2="-1" k3="1"/><feColorMatrix values="0 0 0 0 0.941176 0 0 0 0 0.533333 0 0 0 0 0.333333 0 0 0 1 0"/><feBlend in2="shape" result="effect1_innerShadow_18_1422"/></filter></defs></svg>
